X:291
T:The Night We Had Bears
C:Jenna Moynihan
S:Olivia Hivon
R:reel
M:4/4
L:1/8
K:F#min
FcBF AF F/F/F | AFAB BABc | dD D/D/D ABBc | BAFE FABA |
FcBF AF F/F/F | AFAB BABc |1 d3B ABBc | BE E/E/E cBAG :|2 d2 de efec | ABBA Bcdf ||
K:Amaj
e2 ce aecB | BABc BAce | fAAe fggB | BgBg agfa |
[1 e2 ce aecB | BABc BAce | fecB B2 ce | fecB BAdf :|
[2 e2 dB c3c- | cdcA F3E | FcAF dcAe | dcfe dcGE ||
